X:1
T:Title
%%score { ( 1 3 ) | ( 2 4 ) }
L:1/8
M:4/4
K:Bb
V:1 treble nm="Grand Piano"
V:3 treble 
V:2 bass 
V:4 bass 
V:1
 z4 z2[Q:1/4=100] DE | FF=EF dBFE | z2 [Ae]2 [Ae]2 AB | c=BcB dcGA | z2 [df]2 [df]2 DE | %5
 FF=EF dBD-[D^F] | z2 F2 E2 dc | cBFB BGAF | [B,DB]6 z2 | DGGA [GB][GB] .[GA]2 | [^FA]6 z2 | %11
 [^FA]A[FA][GB] [Ac][Ac][GB]A | [GB]6 z2 | DGGA [GB][GB] .[GA]2 | [Ac]6 z2 | %15
 [=Ec]G[EG][FA] [DB]BAG |[M:3/4] A,4 E2 |[M:1/4] dA |[M:4/4] cBAB .[Dc]2 F^F | %19
[M:17/16] G/-G/-G/-G/-G/-G/-G/-G/-G-<G z/ z/ z/ z |[M:4/4] dc=Bc dcGA |[M:17/16] DDEED-<Dd3/2A | %22
[M:4/4] cBAB AGDE |[M:9/8] G6- G z z | %24
[M:4/4] dfdB [B,EG]2 [Ed]2[Q:1/4=98][Q:1/4=97][Q:1/4=95][Q:1/4=94][Q:1/4=92][Q:1/4=91][Q:1/4=89][Q:1/4=88][Q:1/4=86][Q:1/4=84][Q:1/4=83][Q:1/4=81][Q:1/4=80][Q:1/4=78][Q:1/4=77] | %25
[M:3/4] B-[FB-] [G,=EB-][_EB-] [DB]2 |] %26
V:2
 z8 | B,,2 [F,B,D]2 [F,B,D]2 [F,B,D]2 | F,,2 [F,C]2 [F,C]2 z2 | %3
 F,,2 [F,A,CE]2 [F,A,CE]2 [F,A,CE]2 | B,,2 [F,B,D]2 [F,B,D]2 z2 | B,,2 [F,B,D]2 [F,B,D]2 [B,,B,]2 | %6
 [E,B,E]2 [D,=B,]2 [C,C]2 z2 | [F,B,D]2 z2 [C,C]2 [F,CE]2 | B,,6 DD | G,,2 z G [D,G,B,]2 z G | %10
 D,,2 D,2 D,2 DD | z ^F [D,A,D]2 [D,A,D]2 z F | G,,2 D,2 D,2 DD | G,,2 z G [D,G,B,]2 z G | %14
 F,,2 F,2 F,2[K:treble] FF | z =E [C,C]2 z DCB, |[M:3/4] F,,6 |[M:1/4] [F,A,E][F,A,E] | %18
[M:4/4] [B,,F,]2 [B,,F,]2 z[K:treble] B[K:bass] B,,2 | %19
[M:17/16] [E,B,E][E,B,][D,=B,][D,B,][C,C]-<[C,C][C,G,]3/2[C,C] | %20
[M:4/4] [F,A,E]2 [F,A,E]2 [F,A,E]2 [F,CE]2 | %21
[M:17/16] [B,,B,][B,,B,][C,A,][C,A,][D,B,]-<[D,B,][F,A,E]3/2[F,A,E] | %22
[M:4/4] [B,,F,]2 [B,,F,]2 [B,,F,B,]2 [B,,B,]2 | %23
[M:9/8] [E,B,E][E,B,][D,=B,] [D,B,] [C,_B,]2- [C,B,][C,B,][C,B,] |[M:4/4] .B,2 .B,2 z4 | %25
[M:3/4] B,,-[B,,_A,] z ^F, [B,,=F,]2 |] %26
V:3
 x8 | x8 | E6 z2 | x8 | F6 z2 | z4 z2 .F2 | G6 z2 | z4 =E2 z2 | x8 | x8 | z2 [A,D]2 [A,D]2 z2 | %11
 x8 | z2 [G,B,]2 [G,B,]2 z2 | x8 | z2 [A,C]2 [A,C]2 AA | x8 |[M:3/4] [F,F]6 |[M:1/4] x2 | %18
[M:4/4] D2 D2 z2 [B,D]2 |[M:17/16] z EFFE-<E[Ee]3/2[E=B] |[M:4/4] x8 | %21
[M:17/16] F/-F/-F/-F/-F/-F/-F/-F/-F-<F z/ z/ z/ z |[M:4/4] D2 D2 z4 | %23
[M:9/8] z EF F =E2- E[EA][EB] |[M:4/4] x8 |[M:3/4] .D2 z2 z2 |] %26
V:4
 x8 | x8 | x8 | x8 | x8 | x8 | x8 | x8 | x8 | z2 [D,G,B,]2 z2 [D,G,B,]2 | x8 | %11
 D,,2 z2 z2 [D,A,D]2 | x8 | z2 [D,G,B,]2 z2 [D,G,B,]2 | x6[K:treble] x2 | %15
 C,,2 z2 [C,=E,]2 [C,E,]2 |[M:3/4] x6 |[M:1/4] x2 |[M:4/4] z4 [B,,F,]2[K:treble][K:bass] z2 | %19
[M:17/16] x17/2 |[M:4/4] x8 |[M:17/16] x17/2 |[M:4/4] x8 |[M:9/8] x9 | %24
[M:4/4] [F,F]-[F,DF]F,-[F,D] C,2 [F,A,]2 |[M:3/4] .F,2 B,,2 z2 |] %26

